X:1
T:Wohlauf, Thut Nicht Verzagen, 76.76 D
T:Wohlauf, Thut Nicht Verzagen, 76.76 D
T:Bartholomäus Helder (1585-1635)
T:Public Domain Courtesy of the Cyber Hymnal™
C:Bartholomäus Helder (1585-1635)
Z:Public Domain
Z:Courtesy of the Cyber Hymnal™
%%score ( 1 2 ) ( 3 4 )
L:1/8
M:4/4
K:G
V:1 treble 
V:2 treble 
V:3 bass 
V:4 bass 
V:1
|: [DG]2 | B3 z B [FA]2 [EG]2 | [Gc]4 [GB]2 !breath![Gd]2 | e3 z d [Ec]2 [FA]2 | [GB]6 :| [Gd]2 | %6
 [Fd]2 [Gc]2 [GB]2 A2 | [GB]2 [FA][EG] [FA]2 !breath![DF]2 | [DG]2 [FA]2 [GB]2 [G^c]2 | %9
 [Fd]6 !breath![FA]2 | [GB]2 [FA]2 [EG]2 [DF]2 | [CE]2 [B,D][A,C] [B,D]2 !breath!D2 | %12
 [DE]2 G2 [DG]2 [DF]2 | [DG]6 |] %14
V:2
|: x2 | G2 G2 x5 | x8 | G2 G2 x5 | x6 :| x2 | x6 EF | x8 | x8 | x8 | x8 | x6 D2 | x2 B,C x4 | x6 |] %14
V:3
|: [G,B,]2 | D3 z D [D,D]2 [E,B,]2 | [C,E]4 [G,D]2 !breath![G,B,]2 | C2 [G,B,]2 [A,C]2 [D,D]2 x | %4
 [G,D]6 :| [G,B,]2 | [D,A,]2 E2 [G,D]2 [A,C]2 | [G,D]4 [D,D]2 !breath![C,A,]2 | %8
 [B,,G,]2 [D,D]2 [G,D]2 [E,G,]2 | [D,A,]6 !breath![D,D]2 | [G,D]2 [D,D]2 [E,B,]2 [B,,B,]2 | %11
 [C,G,]4 [G,,G,]2 !breath![B,,G,]2 | [C,G,]2 [E,G,]2 [D,A,]2 [D,A,]2 | [G,,B,]6 |] %14
V:4
|: x2 | G,2 G,2 x5 | x8 | C2 x7 | x6 :| x2 | x2 E,F, x4 | x8 | x8 | x8 | x8 | x8 | x8 | x6 |] %14

